!!!COM: Scriabin, Alexander
!!!OTL: Movement 3
!!!OPR: Sonata No. 1
!!!OPS: 6
!!!ONM: 3
!!!ODT: 1893
!!!AGN: Sonata movement
**kern	**kern
*staff2	*staff1
*clefF4	*clefG2
*k[b-e-a-d-]	*k[b-e-a-d-]
*f:	*f:
*M12/8	*M12/8
8FFFL 8FF	8r
=1	=1
8GGG 8GG	4F 4c 4f
8AAA-J 8AA-	.
8FFFL 8FF	8r
*	*clefF4
8GGG 8GG	4C 4F 4c
8AAA-J 8AA-	.
8FFFL 8FF	8r
8GGG 8GG	4.D- 4.F 4.c
8AAA-J 8AA-	.
8FFFL 8FF	.
8GGG 8GG	4D- 4F 4Bn
8AAA-J 8AA-	.
8FFFL 8FF	8r
*	*clefG2
=2	=2
8BBBn 8BBn	4A- 4f 4a-
8CCJ 8C	.
8FFFL 8FF	8r
8BBB 8BB	4A- 4f
8CCJ 8C	.
8FFFL 8FF	8r
8CC 8C	4.G-X 4.B-X 4.f
8DD-J 8D-	.
8FFFL 8FF	.
8CC 8C	4G- 4B- 4en
8DD-J 8D-	.
8FFL	8r
=3	=3
*^	*
8Dn 8dn	4An	4c 4f 4cc
8E-J 8e-	.	.
8FFL	8rEE	8r
8D-X 8d-X	4A-X	4f 4bn 4ff
8DnJ 8dn	.	.
8FFL	8rEE	8r
8C 8c	4F	4B- 4f 4b-X
8D-XJ 8d-X	.	.
8FFL	8rEE	8r
8BBn 8Bn	4F	4f 4an 4ff
8CJ 8c	.	.
8FFL	8rEE	8r
=4	=4	=4
8BBn 8Bn	4F	4A- 4f 4a-X
8CJ 8c	.	.
8BBB-XL 8BB-X	8rEE	8r
8DD- 8D-	4rEE	4G-X 4B- 4g-X
8BBB-J 8BB-	.	.
8BBB-L 8BB-	8rEE	8r
8DD- 8D-	4rEE	4.G- 4.B- 4.f
8BBB-J 8BB-	.	.
8CCL 8C	8rEE	.
8DD- 8D-	4rEE	4Gn 4B- 4en
8CCJ 8C	.	.
8BBB-L 8BB-	8rEE	8r
*v	*v	*
=5	=5
8CC 8C	4B- 4f 4b-
8DD-J 8D-	.
8BBB-L 8BB-	8r
8CC 8C	4F 4B- 4f
8DD-J 8D-	.
8BBB-L 8BB-	8r
8CC 8C	4.G-X 4.B- 4.f
8DD-J 8D-	.
8BBB-L 8BB-	.
8CC 8C	4G- 4B- 4en
8DD-J 8D-	.
8BBB-L 8BB-	8r
=6	=6
8EEn 8En	4d- 4b- 4dd-
8FFJ 8F	.
8BBB-L 8BB-	8r
8EE 8E	4d- 4b-
8FFJ 8F	.
8BBB-L 8BB-	8r
8FF 8F	4.c 4.e-X 4.b-
8GG-XJ 8G-X	.
8BBB-L 8BB-	.
8FF 8F	4c 4e- 4an
8GG-J 8G-	.
8BB-L	8r
=7	=7
*^	*
8En 8en	4rEE	4d- 4b- 4dd-
8FJ 8f	.	.
8BBnL	8rEE	8r
8Gn 8gn	4d-	4f 4dd- 4ff
8A-J 8a-	.	.
8CL	8rEE	8r
8G 8g	4c	4f 4cc
8A-J 8a-	.	.
8D-L	8rEE	8r
8G 8g	4Bn	4f 4bn 4ff
8A-J 8a-	.	.
8CL	8rEE	8r
=8	=8	=8
8G 8g	4c	4f 4cc
8A-J 8a-	.	.
8CCL 8C	8rEE	8r
8DD- 8D-	4rEE	4B-X 4en 4a-
8CCJ 8C	.	.
8CCL 8C	8rEE	8r
8DD- 8D-	4rEE	4.B- 4.e 4.g
8CCJ 8C	.	.
8FFFL 8FF	8rEE	.
8DD- 8D-	4rEE	4A- 4f
8CCJ 8C	.	.
8FFFL 8FF	8rEE	8r
*v	*v	*
=9	=9
8CC 8C	4G 4B- 4f
8DD-J 8D-	.
[8D- [8G [8Bn	[8f [8bn [8ff
4D-] 4G] 4B]	4f] 4b] 4ff]
[8C [8A- [8c	[8f [8cc [8ff
8C] 8A-] 8c]	8f] 8cc] 8ff]
8r	16ccLL
.	16en
8r	16f
.	16gJJ
4r	8a-L
.	8c
8r	8FJ
=10	=10
*	*^
*	*	*^
16FFLL	4.g	8rc	8r
16C	.	.	.
16D-	.	8B-L	[4B-/
16En	.	.	.
16F	.	[8d-J	.
16G-XJJ	.	.	.
16GnLL	8fL	4.d-]	4.B-/]
16A-	.	.	.
16G	8e-X	.	.
16G-X	.	.	.
16Gn	8enJ	.	.
16D-JJ	.	.	.
16FFLL	4A- 4d- 4f	2.rc	2.r
16D-	.	.	.
16A-	.	.	.
16D-	.	.	.
16d-	8raa	.	.
16D-JJ	.	.	.
16A-LL	4raa	.	.
16d-J	.	.	.
8a-J	.	.	.
8FFFL 8FF	8raa	.	.
*	*v	*v	*v
=11	=11
8CC 8C	4G 4B- 4f
8DD-J 8D-	.
[8D- [8G [8Bn	[8f [8bn [8ff
4D-] 4G] 4B]	4f] 4b] 4ff]
[8C [8A- [8c	[8f [8cc [8ff
8C] 8A-] 8c]	8f] 8cc] 8ff]
8r	16ccLL
.	16en
8r	16f
.	16gJJ
4r	8a-L
.	8c
8FFF#XL 8FF#X	8A-J
=12	=12
8DDn 8Dn	4A- 4c 4a-
8EE-J 8E-	.
[8FF#X [8E- [8c	[8a- [8cc [8aa-
4FF#] 4E-] 4c]	4a-] 4cc] 4aa-]
[8GG [8E- [8c	[8g [8cc [8gg
4GG] 4E-] 4c]	4g] 4cc] 4gg]
*	*clefF4
[8AAA- [8AA-	[8Dn [8F [8Bn
4AAA-] 4AA-]	4.D] 4.F] 4.B]
8GGG 8GG	.
=13	=13
4.CCC 4.CC	4.C 4.E- 4.c
*	*clefG2
[4.E- [4.A- [4.e-	[4.g [4.cc [4.gg
8E-L] 8A-] 8e-]	8gL] 8cc] 8gg]
8Dn 8A- 8f#X	8cc 8ff#X 8ccc
8AA-J 8D 8c	8f#XJ 8cc 8ff#
4.GG 4.E- 4.c	4g 4cc 4gg
.	8cc
=14	=14
*	*clefF4
4.CCC 4.CC	4.C
*	*clefG2
[4.AA- [4.E- [4.c	[4.e- [4.g [4.ee-
8AA-L] 8E-] 8c]	8e-L] 8g] 8ee-]
8AA- 8Dn 8c	8dn 8f#X 8ddn
8DDnJ 8D	8F#XJ 8c 8f#
4EE- 4E-	8GL 8c 8g
.	8cJ
8r	[8G [8c [8e-
=15	=15
4.AAAAn 4.AAAn	8G] 8c] 8e-]
.	8gL
.	[8ee-J
8E- 8G 8c 8g	8ee-L]
16GLL	8ddn
16Bn	.
16c	8ccJ
16dnJJ	.
8e-	8r
*clefG2	*
8e-L 8ee-	16ggLL
.	16bbn
8BnJ 8bn	16ccc
.	16dddnJJ
8c 8cc	8eee-
8r	16gLL
.	16bn
8r	16cc
.	16ddJJ
*clefF4	*
=16	=16
*^	*
4.DDDn 4.DDn	4rEE	16ee-LL
.	.	16g
.	.	16cc
.	.	16g
.	8rEE	16gg
.	.	16gJJ
4.E- 4.G 4.c 4.g	4rEE	16ccLL
.	.	16gg
.	.	16cc
.	.	16gg
.	8rEE	16ccc
.	.	16ggJJ
4rc	4rEE	16gggLL
.	.	16gg
.	.	16ccc
.	.	16cc
8rc	8rEE	16ee-
.	.	16gJJ
8B-XL	4.Dn	16gLL
.	.	16e-
8An	.	16f#X
.	.	[16cJ
8e-J	.	8cJ] 8f# 8cc
*v	*v	*
=17	=17
4.GGG 4.GG	4.G
[4.B- [4.e- [4.b-	[4.ddn [4.gg [4.dddn
8B-L] 8e-] 8b-]	8ddL] 8gg] 8ddd]
8An 8e- 8cc#X	8gg 8ccc#X 8ggg
8E-J 8A 8g	8cc#XJ 8gg 8ccc#
4.Dn 4.B- 4.g	4dd 4gg 4ddd
.	8gg
=18	=18
4.GGG 4.GG	4.G
[4.E- [4.B- [4.g	[4.b- [4.ddn [4.bb-
8E-L] 8B-] 8g]	8b-L] 8dd] 8bb-]
8E- 8An 8g	8an 8cc#X 8aan
8AAnJ 8A	8c#XJ 8g 8cc#
4BB- 4B-	4dn 4g 4dd
8r	8g
=19	=19
*	*^
4r	4raa	4rc
8AA-XL 8A-X	[8ddn	[8f [8b-
8BB- 8B-	4.dd_	4f] 4b-]
8AA-J 8A-	.	.
8GGL 8G	.	[8e- [8b-
8BB- 8B-	16%3ddL]	4.e-] 4.b-]
8GGJ 8G	.	.
.	16%3ccnJ 16%3ee-	.
8FFL 8F	.	.
8BB- 8B-	16%3ddL 16%3ff	4.a-X 4.b-
8FFJ 8F	.	.
.	16%3ee-J 16%3gg	.
8EE-L 8E-	.	.
=20	=20	=20
8BB- 8B-	4g	4b-
8EE-J 8E-	.	.
8GG-XL 8G-X	[8cc	[8e- [8a-
8AA- 8A-	4.cc_	4e-] 4a-]
8GG-J 8G-	.	.
8FFL 8F	.	[8d-X [8a-
8AA- 8A-	16%3ccL]	4.d-] 4.a-]
8FFJ 8F	.	.
.	16%3b-J 16%3dd-X	.
8EE-L 8E-	.	.
8AA- 8A-	16%3ccL 16%3ee-	4.g-X 4.a-
8EE-J 8E-	.	.
.	16%3dd-J 16%3ff	.
8DD-L 8D-	.	.
=21	=21	=21
8AA- 8A-	4f	4a-
8DD-J 8D-	.	.
8d-L	8raa	8rc
8A-	4Bn 4f 4bn	4rc
8D-J	.	.
8AA-L	8raa	8rc
8C	4c 4f 4cc	4rc
8A-J	.	.
8D-L	8raa	8rc
8AA-	4F 4f	4rc
8DD-J	.	.
8CCL	8raa	8rc
*	*clefF4	*
=22	=22	=22
8D-	4.F 4.A-	4rEE
8AA-J	.	.
8CL	.	8rEE
8GGJ	16%3EnL 16%3B-X 16%3c	4rEE
8BB-L	.	.
.	16%3D-J 16%3A- 16%3d-	.
8FFJ	.	8rEE
8AA-L	4.E-X 4.e-X	16%3cL
8EE-J	.	.
.	.	16%3B-J
8GG-XL	.	.
8GGn	4En 4B- 4en	4rEE
8CCJ	.	.
8FFFL 8FF	8rc	8rEE
*	*v	*v
=23	=23
8GGG 8GG	4F 4c 4f
8AAA-J 8AA-	.
8GGGL 8GG	8r
8BBB- 8BB-	4C 4F 4c
8AAA-J 8AA-	.
8FFFL 8FF	8r
8GGG 8GG	4.D- 4.F 4.c
8AAA-J 8AA-	.
8GGGL 8GG	.
8AAA- 8AA-	4D- 4F 4Bn
8GGGJ 8GG	.
8FFFL 8FF	8r
*	*clefG2
=24	=24
8BBBn 8BBn	4A- 4f 4a-
8CCJ 8C	.
8BBBL 8BB	8r
8DD- 8D-	4A- 4f
8CCJ 8C	.
8FFFL 8FF	8r
8CC 8C	4.G-X 4.B-X 4.f
8DD-J 8D-	.
8CCL 8C	.
8DD- 8D-	4G- 4B- 4en
8BBB-XJ 8BB-X	.
8FFL	8r
=25	=25
*^	*
8Dn 8dn	4An	4c 4f 4cc
8E-J 8e-	.	.
8FFL	8rEE	8r
8D-X 8d-X	4A-X	4f 4bn 4ff
8DnJ 8dn	.	.
8FFL	8rEE	8r
8C 8c	4F	4B- 4f 4b-X
8D-XJ 8d-X	.	.
8FFL	8rEE	8r
8BBn 8Bn	4F	4f 4an 4ff
8CJ 8c	.	.
8FFL	8rEE	8r
=26	=26	=26
8BBn 8Bn	4F	4A- 4f 4a-X
8CJ 8c	.	.
8BBB-XL 8BB-X	8rEE	8r
8DD- 8D-	4rEE	4G-X 4B- 4g-X
8BBB-J 8BB-	.	.
8BBB-L 8BB-	8rEE	8r
8DD- 8D-	4rEE	4.G- 4.B- 4.f
8BBB-J 8BB-	.	.
8CCL 8C	8rEE	.
8DD- 8D-	4rEE	4Gn 4B- 4en
8CCJ 8C	.	.
8BBB-L 8BB-	8rEE	8r
*v	*v	*
=27	=27
8CC 8C	4B- 4f 4b-
8DD-J 8D-	.
8CCL 8C	8r
8EE- 8E-	4F 4B- 4f
8DD-J 8D-	.
8BBB-L 8BB-	8r
8CC 8C	4.G-X 4.B- 4.f
8DD-J 8D-	.
8CCL 8C	.
8DD- 8D-	4G- 4B- 4en
8CCJ 8C	.
8BBB-L 8BB-	8r
=28	=28
8EEn 8En	4d- 4b- 4dd-
8FFJ 8F	.
8EEL 8E	8r
8GG-X 8G-X	4.d- 4.b-
8FFJ 8F	.
8BBB-L 8BB-	.
8FF 8F	4.c 4.e-X 4.b-
8GG-J 8G-	.
8FFL 8F	.
8GG- 8G-	4c 4e- 4an
8EE-XJ 8E-X	.
8BB-L	8r
=29	=29
*^	*
8En 8en	4rEE	4d- 4b- 4dd-
8FJ 8f	.	.
8BBnL	8rEE	8r
8Gn 8gn	4d-	4f 4dd- 4ff
8A-J 8a-	.	.
8CL	8rEE	8r
8G 8g	4c	4f 4cc
8A-J 8a-	.	.
8D-L	8rEE	8r
8G 8g	4Bn	4f 4bn 4ff
8A-J 8a-	.	.
8DnL	8rEE	8r
*clefG2	*	*
=30	=30	=30
8Bn 8bn	4f	4a- 4ff 4aa-
8cJ 8cc	.	.
8E-XL	8rc	8r
8Bn 8b	4a-	4ee- 4aa- 4eee-
8cJ 8cc	.	.
8EnL	8rc	8r
8c 8b-X	4rc	4cc 4aa- 4ccc
8a-J	.	.
8FL	8rc	8r
8B 8bn	4f	4aa- 4fff 4aaa-
8cJ 8cc	.	.
8F#XL	8rc	8r
=31	=31	=31
8dn 8ddn	4a-	4aa- 4ccc 4aaa-
8e-J 8ee-	.	.
8GL	8rc	8r
8d 8dd	4g	4gg 4ccc 4ggg
8e-J 8ee-	.	.
*clefF4	*	*
8GGL 8G	8rEE	8r
8AA- 8A-	2.rEE	4e- 4cc 4gg
8GGJ 8G	.	.
8GGL 8G	.	8r
8AA- 8A-	.	4d- 4fn 4bn
8GGJ 8G	.	.
8CC 8C	.	8r
*v	*v	*
=32	=32
8FF#XL 8F#X	[4.e- 4.cc 4.ee-
8AA- 8A-	.
8GGJ 8G	.
4r	8e-] 8cc
.	8r
8FF#	8F#X
8FF#L	8F#L
8AA-	8A-
8GGJ	8GJ
4r	4r
[8GG	8r
=33	=33
4.CC 4.GG] 4.C	[4.E- 4.G 4.e-
4r	8E-] 8c
.	8r
8FF#X	8F#X
8FF#L	8F#L
8AA-	8A-
8GGJ	8GJ
4r	4r
[8EE-	8r
*	*clefF4
=34	=34
4AAA- 4EE-] 4AA-	4E- 4A- 4c 4e-
[8AA-	8r
4EE- 4AA-] 4E-	4C 4A- 4c
[8BBn	8r
4FF-X 4BB] 4F-X	4Dn 4A- 4dn
[8Bn	8r
*	*clefG2
4F- 4B	4A- 4d 4a-
[8E-	8r
=35	=35
4AA- 4E-] 4A-	4c 4a- 4cc
[8A-	8r
4E- 4A-] 4e-	4c 4a-
[8Bn	8r
4F-X 4B] 4f-X	4dn 4a- 4ddn
[8F-	8r
4AA- 4F-] 4B	4a- 4dd 4aa-
8c 8e- 8a-	8aa-
=36	=36
*^	*
4AAA- 4AA-	4rEE	[4.ee-
[8c	8rEE	.
4.E- 4.c] 4.a-	4rEE	8ee-L]
.	.	8ddn
.	8rc	8ee-J
*clefG2	*	*
8.anL	4.d-X	8ffnL
.	.	8gg-X
8.b-XJ	.	.
.	.	8ggnJ
8dd-XL	8rc	4bb-
8g	8EnL 8d-	.
[8a-XJ	[8FJ [8c	8aa-
=37	=37	=37
4a-]	4F] 4c]	[4.cc
*clefF4	*	*
8rc	[8A-	.
4.f	4.C 4.A-]	8ccL]
.	.	8bn
.	.	8ccJ
8.e-L	4.C 4.A-	8dd-XL
.	.	8ddn
8.a-J	.	.
.	.	8ee-XJ
8.a-L	8.D-L 8.A- 8.B-	8ggL
.	.	8ff
8.a-J	8.DnJ 8.A- 8.Bn	.
.	.	8ff-XJ
=38	=38	=38
*	*	*^
4DDDn 4DDn	4rEE	[4.a-	4rc
[8F-X	8rEE	.	8rc
4.BBn 4.F-] 4.Bn	4rEE	8a-L]	4rc
.	.	8g	.
.	8rEE	8a-J	8rc
4.A- 4.f-X	4rEE	8b-XL	4rc
.	.	8bn	.
.	8rEE	[8aa-J	8rc
4B 4bn	4rEE	8aa-L]	4rc
.	.	8gg-X	.
8B	[8E-	8a-J 8ff-X	[8a-
=39	=39	=39	=39
8cL	4.E-]	8.ee-L	4.a-]
8dn	.	.	.
.	.	8.ccJ	.
8e-J	.	.	.
4.f-X	8rEE	[4.a-	4rc
.	8B-XL	.	.
.	8BnJ	.	8rc
4.e-	4.c	8a-L]	4rc
.	.	8ee-	.
.	.	8ffnJ	8rc
4rc	4d-X 4e- 4b-X	8gg-XL	4rc
.	.	8ggn	.
8rc	8c 8e- 8a-	8aa-J	8rc
*	*	*v	*v
=40	=40	=40
4AAA- 4AA-	4rEE	[4.ee-
[8c	8rEE	.
4.E- 4.c] 4.a-	4rEE	8ee-L]
.	.	8ddn
.	8rc	8ee-J
*clefG2	*	*
8.anL	4.d-X	8ffL
.	.	8gg-X
8.b-XJ	.	.
.	.	8ggnJ
8dd-XL	8rc	4bb-
8g	8EnL 8d-	.
[8a-XJ	[8FJ [8c	8aa-
=41	=41	=41
4.a-]	4F] 4c]	[4.cc
.	[8A-	.
*clefF4	*	*
4.f	4.C 4.A-]	8ccL]
.	.	8bn
.	.	8ccJ
8.rc	8.FFL	8dd-XL
.	.	8ddn
8.c	8.DnJ [8.c	.
.	.	8ee-J
4.cc	4.A- 4.c] 4.f	8ggL
.	.	8ff
.	.	8ee-J
*v	*v	*
=42	=42
4GGG 4GG	[4.a-
[8c	.
4.E- 4.c] 4.e-	8a-L]
.	8f#X
.	8gJ
4r	8a-L
.	8g
8r	8bnJ
8r	8ccL
8F#XL	8a-
8GJ	8gJ
=43	=43
*^	*
*	*^	*
8A-L	4GG	4r	4.F#X 4.c 4.f#X
8D-	.	.	.
8DnJ	8rEE	8r	.
8E-L	8rEE	4r	4.Fn 4.Bn 4.fn
8DJ	8FF#XL	.	.
8rc	8GGJ	8r	.
4rc	8AA-L	8r	[4.F [4.B
.	8GGJ	8DDn/L	.
8rc	8rEE	[8DD-X/J	.
4rc	4.GG	4DD-/]	4F] 4B]
8rc	.	8CC/	[8E- [8c
*v	*v	*v	*
=44	=44
*	*^
16%3CCL	2.E-] 2.c]	4rc
16%3GGJ	.	.
.	.	8rc
8E-L	.	4rc
8c	.	.
8gJ	.	8rc
8ee-	8raa	4rc
8r	8gL	.
8r	8bnJ	8rc
4r	8ccL	4rc
.	8ddn	.
[8C [8G	8ee-J	[8e-
=45	=45	=45
4.C] 4.G]	[4.cc	4.e-]
4.C 4.G	8ccL]	4.e-
.	8an	.
.	[8b-XJ	.
2.C 2.G-X	8b-L]	2.e-
.	8cc	.
.	8dd-XJ	.
.	8ffL	.
.	8ee-	.
.	8ffJ	.
=46	=46	=46
4.C 4.F	8a-XL	4.e-
.	8an	.
.	[8ffJ	.
8BBnL	8ffL]	4rc
8F	8a	.
8e-J	8gg-XJ	8rc
8CL	8ee-L	4rc
8F	8ff	.
8e-J	8dd-J	8rc
4FF	8ffL	4rc
.	8ee-	.
[8BB-X [8F	8dd-J	[8d-
=47	=47	=47
4.BB-] 4.F]	[4.a-	4.d-]
4.BB- 4.F	8a-L]	4.d-
.	8g	.
.	[8a-J	.
2.BB- 2.F-X	8a-L]	2.d-
.	8b-	.
.	8ccJ	.
.	8ee-L	.
.	8dd-	.
.	8ee-J	.
=48	=48	=48
4.BB- 4.E-	8g-XL	4.d-
.	8gn	.
.	[8ee-J	.
8AAnL	8ee-L]	4rc
8E-	8g	.
8d-J	8ffnJ	8rc
8BB-L	8dd-L	4rc
8E-	8ee-	.
8d-J	8ggJ	8rc
4EE-	8fffL	4rc
.	8eee-	.
[8AAA- [8AA-X	8aa-J 8aaa-	8rc
=49	=49	=49
*^	*	*
4AAA-] 4AA-]	4rEE	[4.ee- [4.eee-	2.ccc
8rc	[8c	.	.
4.a-	4.E- 4.c]	8ee-L] 8eee-]	.
.	.	8ddn 8dddn	.
.	.	8ee-J 8eee-	.
*clefG2	*	*	*
8.anL	4.d-X	8ffL 8fff	4.ddd-X
.	.	8gg-X 8ggg-X	.
8.b-J	.	.	.
.	.	8ggnJ 8gggn	.
8dd-XL	8rc	4bb- 4bbb-	4.rc
8g	8EnL 8d-	.	.
[8a-XJ	[8FJ 8c	8aa- 8aaa-	.
*	*	*v	*v
=50	=50	=50
4.a-]	4F] 4d-	[4.dd- [4.ddd-
.	[8A-	.
*clefF4	*	*
4rc	4.C 4.A-] 4.d- 4.f	8dd-L] 8ddd-]
.	.	8a- 8aa-
8rc	.	8ccJ 8ccc
4rc	4.CC-X 4.C-X	8dd-L 8ddd-
.	.	8ff 8fff
8rc	.	8ggJ 8ggg
4rc	4.F 4.A- 4.d- 4.f	8aa-L 8aaa-
.	.	8gg 8ggg
8rc	.	8ffJ 8fff
*v	*v	*
=51	=51
4.BBB- 4.BB-	[4.f [4.ff
4.G 4.d- 4.g	8fL] 8ff]
.	8en 8een
.	8fJ 8ff
2.r	8g-XL 8gg-X
.	8gn 8ggn
.	[8dd-J [8ddd-
.	8dd-L] 8ddd-]
.	8g 8gg
.	8g-XJ 8gg-X
=52	=52
*^	*
4rc	4rEE	4.f 4.ff
[8GGn	8BBB-L	.
4.GG_	8CC	4.F 4.B- 4.f
.	8DD-J	.
.	8BBB-L	.
4GG]	8CC	4.F 4.B- 4.f
.	8DD-J	.
8rc	8rEE	.
4rc	4rEE	4.f 4.ff
8rc	8rEE	.
*v	*v	*
=53	=53
4.BBBBn 4.BBBn	[4.F [4.f
4.GG 4.D- 4.G	8FL] 8f]
.	8En 8en
.	8FJ 8f
2.r	8G-XL 8g-X
.	8Gn 8gn
.	[8d-J [8dd-
.	8d-L] 8dd-]
.	8G 8g
.	8G-XJ 8g-X
=54	=54
4r	4.F 4.f
8BBBnL	.
8FF	[4.A- [4.f
8D-J	.
8FFL	.
8F	4.A-] 4.f]
8D-J	.
8A-L	.
8F	4A- 4f
8FFJ	.
8CCL	8r
=55	=55
8FF	4A- 4f
8D-J	.
8FFL	8r
8F	4A- 4c
8CJ	.
8FFL	8r
*	*clefF4
8CC	4.D- 4.F 4.c
8FFJ	.
8GGL	.
8AA-	4D- 4F 4Bn
8FFJ	.
8CCL	8r
=56	=56
*	*clefG2
8FF	4A- 4f 4a-
8D-J	.
8FFL	8r
8F	4A- 4f
8CJ	.
8CCL	8r
8FF	4.G-X 4.B-X 4.f
8BB-J	.
8CL	.
8D-	4G- 4B- 4en
8BB-J	.
8CL	8r
=57	=57
8E-	4c 4f 4cc
8AnJ	.
8A-XL	8r
8dn	4f 4bn 4ff
8A-J	.
8CL	8r
8D-X	4B- 4en 4b-X
8G-XJ	.
8FL	8r
8c	4f 4an 4ff
8FJ	.
8CL	8r
=58	=58
8F	4A- 4f 4a-X
8cJ	.
8G-XL	8r
8d-	4B- 4g-X
8CJ	.
8GnL	8r
8A-	4.B- 4.en
8GJ	.
8CL	.
8D-	4A- 4f
8AA-J	.
8DD-L	8r
=59	=59
8BB--	4d- 4f 4dd-
8FJ	.
8AA-L	8r
8F	4d- 4f 4a-
8d-J	.
8DD-L	8r
8BB--	4.B-- 4.d- 4.a-
8D-J	.
8E-L	.
8F-X	4B-- 4d- 4gn
8D-J	.
8DD-L	8r
=60	=60
8BB--	4f 4dd- 4ff
8FJ	.
8AA-L	8r
8F	4f 4a- 4dd-
8d-J	.
8DD-L	8r
8BB--	4.e-- 4.g-X 4.dd-
8G-XJ	.
8A-L	.
8B--	4e-- 4g- 4cc
8G-J	.
8D-L	8r
=61	=61
8F-X	4d- 4g-X 4dd-
8B-XJ	.
8AnL	8r
8e-X	4g- 4cc 4gg-X
8AJ	.
8D-L	8r
8E--	4c-X 4g- 4cc-X
8A-XJ	.
8A--L	8r
8d-	4fn 4cc- 4ffn
8A--J	.
8D-L	8r
=62	=62
*^	*
8G-X	4rEE	4B- 4g-X 4b-
8d-J	.	.
8A-XL	8rEE	8r
8d-	4rEE	4Bn 4f 4bn
8D-J	.	.
8CL	8rEE	8r
8D-	4.A-	4c 4f 4cc
8CJ	.	.
8D-L	.	8r
8C	4.Gn	4B-X 4en
8D-J	.	.
8C	.	8r
*v	*v	*
=63	=63
4.FFF 4.FF	4.F 4.A- 4.f
[4.A- [4.d- [4.a-	[4.cc [4.ff [4.ccc
8A-L] 8d-] 8a-]	8ccL] 8ff] 8ccc]
8G 8d- 8bn	8ff 8bbn 8fff
8D-J 8G 8f	8bnJ 8ff 8bb
4.C 4.A- 4.f	4cc 4ff 4ccc
.	8ff
=64	=64
4.FFF 4.FF	4.F
[4.D- [4.A- [4.f	[4.a- [4.cc [4.aa-
8D-L] 8A-] 8f]	8a-L] 8cc] 8aa-]
8D- 8G 8f	8g 8bn 8gg
8GGJ 8G	8BnJ 8f 8b
4AA- 4A-	8cL 8f 8cc
.	8fJ
8r	[8c [8f [8a-
=65	=65
4.DDDn 4.DDn	8c] 8f] 8a-]
.	8ccL
.	[8aa-J
8A- 8c 8f 8cc	8aa-L]
16cLL	8gg
16en	.
16f	8ffJ
16gJJ	.
8a-	8r
*clefG2	*
8a-L 8aa-	16cccLL
.	16eeen
8enJ 8een	16fff
.	16gggJJ
8f 8ff	8aaa-
8r	16ccLL
.	16een
8r	16ff
.	16ggJJ
*clefF4	*
=66	=66
*^	*
4GGG 4GG	4rEE	16aa-LL
.	.	16cc
.	.	16ff
.	.	16cc
8Dn	8rEE	16ccc
.	.	16ccJJ
4.A- 4.c 4.f 4.cc	4rEE	16ffLL
.	.	16ccc
.	.	16ff
.	.	16ccc
.	8rEE	16fff
.	.	16cccJJ
4rc	4rEE	16ccccLL
.	.	16ccc
.	.	16fff
.	.	16ff
8rc	8rEE	16aa-
.	.	16ccJJ
8e-XL	4.G	16ccLL
.	.	16a-
8dn	.	16bn
.	.	[16fJ
8a-J	.	8fJ] 8b 8ff
*v	*v	*
*	*clefF4
=67	=67
4.CCC 4.CC	4.C
*	*clefG2
[4.E- [4.A- [4.e-	[4.g [4.cc [4.gg
8E-L] 8A-] 8e-]	8gL] 8cc] 8gg]
8Dn 8A- 8f#X	8cc 8ff#X 8ccc
8AA-J 8D 8c	8f#XJ 8cc 8ff#
4.GG 4.E- 4.c	4g 4cc 4gg
.	8cc
=68	=68
*	*clefF4
4.CCC 4.CC	4.C
*	*clefG2
[4.AA- [4.E- [4.c	[4.e- [4.g [4.ee-
8AA-L] 8E-] 8c]	8e-L] 8g] 8ee-]
8AA- 8Dn 8c	8dn 8f#X 8ddn
8DDnJ 8D	8F#XJ 8c 8f#
4.EE- 4.E-	4G 4c 4g
.	8c
=69	=69
*	*^
4r	4raa	4rc
8DD-XL 8D-X	[8g	[8B- [8e-
8EE- 8E-	4.g_	4B-] 4e-]
8DD-J 8D-	.	.
8CCL 8C	.	[8A- [8e-
8EE- 8E-	16%3gL]	4.A-] 4.e-]
8CCJ 8C	.	.
.	16%3fnJ 16%3a-	.
8BBB-L 8BB-	.	.
8EE- 8E-	16%3gL 16%3b-	4.d-X 4.e-
8BBB-J 8BB-	.	.
.	16%3a-J 16%3cc	.
8AAA-L 8AA-	.	.
=70	=70	=70
8EE- 8E-	4c	4e-
8AAA-J 8AA-	.	.
8CC-XL 8C-X	[8f	[8A- [8d-
8DD- 8D-	4.f_	4A-] 4d-]
8CC-J 8C-	.	.
8BBB-L 8BB-	.	[8G-X [8d-
8DD- 8D-	16%3fL]	4.G-] 4.d-]
8BBB-J 8BB-	.	.
.	16%3e-J 16%3g-X	.
8AAA-L 8AA-	.	.
8DD- 8D-	16%3fL 16%3a-	4.c-X 4.d-
8AAA-J 8AA-	.	.
.	16%3g-J 16%3b-	.
8GGG-XL 8GG-X	.	.
=71	=71	=71
8DD- 8D-	4B-	4d-
8GGG-XJ 8GG-X	.	.
8GGG-L 8GG-	8raa	8rc
8DD- 8D-	4En 4B- 4en	4rc
8CCnJ 8Cn	.	.
[8DD- [8D-	8raa	8rc
8DD-L] 8D-]	4F 4B- 4f	4rc
8DDD-J 8DD-	.	.
8GGG-L 8GG-	8raa	8rc
8DD- 8D-	4E 4B- 4e	4rc
8CCJ 8C	.	.
8FFFL 8FF	8raa	8rc
=72	=72	=72
*^	*	*
8GG-X 8G-X	4rEE	4.B- 4.d-	4rc
8DD-J 8D-	.	.	.
8FFL 8F	4rEE	.	8rc
8CCJ 8C	.	16%3AnL 16%3e-X 16%3f	4rc
8EE-L 8E-	4rEE	.	.
.	.	16%3G-XJ 16%3d- 16%3g-X	.
8BBB-J 8BB-	.	.	8rc
8DD-L 8D-	4rEE	4.A-X 4.a-X	16%3fL
8AAA-J 8AA-	.	.	.
.	.	.	16%3e-J
8CCL 8C	4rEE	.	.
8GGG-X 8GG-X	.	4An 4e- 4an	4rc
8FFFJ 8FF	8rEE	.	.
8BBB-L	8BBBB- 8BBB-	8raa	8rb
*	*	*v	*v
=73	=73	=73
8CC 8C	4rEE	4B- 4f 4b-
8DD-J 8D-	.	.
8BBB-L	8BBBB- 8BBB-	8r
8CC 8C	4rEE	4F 4B- 4f
8DD-J 8D-	.	.
[8BBB-	[8BBBB- [8BBB-	8r
8BBB-L]	8BBBB-] 8BBB-]	4.G-X 4.B- 4.f
8BBB-J 8BB-	8rEE	.
8CCL 8C	4rEE	.
8DD- 8D-	.	4G- 4B- 4en
8BBB-J 8BB-	8rEE	.
8BBB-L	8BBBB- 8BBB-	8r
=74	=74	=74
8EEn 8En	4rEE	4d- 4b- 4dd-
8FFJ 8F	.	.
8BBB-L	8BBBB- 8BBB-	8r
8EE 8E	4rEE	4d- 4b-
8FFJ 8F	.	.
[8BBB-	[8BBBB- [8BBB-	8r
8BBB-L]	8BBBB-] 8BBB-]	4.c-X 4.e-X 4.b-
8EEnJ 8En	8r	.
8FFL 8F	8r	.
8GG-X 8G-X	8rEE	4c- 4e- 4an
8EE-XJ 8E-X	8rEE	.
8BBB-L 8BB-	8rEE	8r
*v	*v	*
=75	=75
8AA-X 8A-X	4f 4b- 4ff
8DnJ 8dn	.
8GGL 8G	8r
8D 8d	4b- 4een 4bb-
8D-XJ 8d-X	.
8GG-XL 8G-X	8r
8D- 8d-	4en 4b- 4ee
8CJ 8c	.
8D-L 8d-	8r
8FF 8F	4f 4b- 4ff
8BBB-J 8BB-	.
8BBBB-L 8BBB-	8r
=76	=76
8EEn 8En	4d- 4b- 4dd-
8FFJ 8F	.
8CCC-X 8CC-X	8r
4.AA- 4.A-	8r
.	16fLL
.	16a-
.	16dd-
.	16a-JJ
4.F 4.d- 4.f	16aa-LL
.	16a-
.	16dd-
.	16aa-
.	16dd-
.	16aa-JJ
4d- 4a- 4dd-	16ddd-LL
.	16ddd-J
.	8dddd-J
8BBBB-L 8BBB-	8r
=77	=77
8EEn 8En	4d- 4b- 4dd-
8FFJ 8F	.
8BBBBn 8BBBn	8r
4.AA- 4.A-	8r
.	16fLL
.	16a-
.	16dd-
.	16a-JJ
4F 4d- 4f	16aa-LL
.	16ddd-J
.	8dddd-J
[8BBB-X	8r
*	*clefF4
4BBB-] 4FF	4D- 4B- 4d-
[8CC-X	8r
=78	=78
4CC-] 4FF	4D- 4A- 4d-
[8BBB-	8r
4BBB-] 4FF	4D- 4B- 4d-
[8CC-X	8r
4CC-] 4FF	4D- 4A- 4d-
[8BBB-	8r
4BBB-] 4FF	4D- 4B- 4d-
8BBBn	8r
=79	=79
8.BBBnL 8.FF	8.D-L 8.A- 8.d-
8.BBBJ 8.FF	8.D-J 8.A- 8.d-
8.BBBL 8.FF	8.D-L 8.A- 8.d-
8.BBBJ 8.FF	8.D-J 8.A- 8.d-
8.BBBL 8.FF	8.D-L 8.A- 8.d-
8.BBBJ 8.FF	8.D-J 8.A- 8.d-
8.BBBL 8.FF	8.D-L 8.A- 8.d-
8.BBBJ 8.FF	8.D-J 8.A- 8.d-
=80	=80
8BBBnL 8GG	8FL 8G 8d- 8f
8BBB 8GG	8F 8G 8d- 8f
8BBBJ 8GG	8FJ 8G 8d- 8f
8BBBL 8GG	8FL 8G 8d- 8f
8BBB 8GG	8F 8G 8d- 8f
8BBBJ 8GG	8FJ 8G 8d- 8f
8BBBL 8GG	8FL 8G 8d- 8f
8BBB 8GG	8F 8G 8d- 8f
8BBBJ 8GG	8FJ 8G 8d- 8f
8BBBL 8GG	8FL 8G 8d- 8f
8BBB 8GG	8F 8G 8d- 8f
8BBBJ 8GG	8FJ 8G 8d- 8f
=81	=81
*	*^
4.BBBBn 4.BBBn	8GG	4rEE
.	8rc	.
.	8rc	8rEE
*	*clefG2	*
8GG 8F 8d-	8f 8g 8dd- 8ff	4rc
8r	8raa	.
8r	8raa	8rc
4r	4raa	4rc
8r	8raa	8rc
4r	4raa	4rc
[8C [8A-	8ff	[8f
*	*v	*v
=82	=82
*M9/8	*M9/8
*	*^
2.C_ 2.A-_	[4.cc	2.f_
.	8ccL]	.
.	8bn	.
.	8ccJ	.
4.C_ 4.A-_	4ee-	4.f]
.	8dd-	.
=83	=83	=83
4.C] 4.A-]	8fL	4.f
.	8g	.
.	8a-J	.
4r	4raa	4rc
8r	8raa	8rc
4r	4raa	4rc
[8qCC/	.	.
8CC_ [8AA- [8D- [8A-	8dd-	[8d- [8f
=84	=84	=84
2.CC_ 2.AA-_ 2.D-_ 2.A-_	[4.a-	2.d-] 2.f]
.	8a-L]	.
.	8g	.
.	8a-J	.
4.CC] 4.AA-] 4.D-] 4.A-]	4b-	4rc
.	8a-	8rc
*	*v	*v
=85	=85
4r	8d-L
.	8e-
8r	8fJ
8CC 8GG-X 8D-	8G-X 8B- 8d- 8g-X
8r	8r
8r	8r
4r	4r
8r	8r
=86	=86
8CC 8GGn 8C	8En 8B- 8en
8r	8r
8r	8r
4r	4r
8r	8r
4r	4r
8r	8r
=||	=||
*-	*-
!!!system-decoration: {(*)}
!!!ENC: Bryan Jacob Bell
!!!END: November 2021 to April 2022
!!!PED: Günter Philipp
!!!PTL: Ausgewählte Klavierwerke (Edition Peters)
